X:4
T:The Braes of Lochiel
Z:Jack Campin, 2006, http://www.campin.me.uk/
M:6/8
L:1/8
Q:3/8=60
K:A Minor
e|A>GB A2A|a>ge d<eg|G<BA G2B |d>eg e<dB|
  B<AG A2A|a>ge d<eg|B<GB d>eg|B2A  A2 :|
g|a>ga a2e|a>ge d<eg|G<BA G2B |d>eg e<dB|
  B<AG A2A|a>ge d<eg|B<GB d>eg|B2A  A2 :|

